assets/illustrations/multisize/48/mpp.svg

<svg id="1f185698-4b98-4b11-810f-aa78496cdb39" data-name="ICONS" xmlns="http://www.w3.org/2000/svg" xmlns:xlink="http://www.w3.org/1999/xlink" viewBox="0 0 48 48"><defs><linearGradient id="fb98a3cd-08df-44f3-8aba-8d6e076fc8be" x1="8.58668" y1="5.86411" x2="42.48928" y2="46.26765" gradientUnits="userSpaceOnUse"><stop offset="0" stop-color="#fff" stop-opacity="0"/><stop offset="0.86247" stop-color="#5e5e5e" stop-opacity="0.06315"/><stop offset="1" stop-opacity="0.1"/></linearGradient><linearGradient id="18d0a186-c61b-48eb-8255-d2373441d684" x1="38" y1="16.90625" x2="38" y2="14.08751" gradientUnits="userSpaceOnUse"><stop offset="0" stop-color="#828282" stop-opacity="0"/><stop offset="0.86247" stop-color="#303030" stop-opacity="0.06315"/><stop offset="1" stop-opacity="0.1"/></linearGradient><linearGradient id="92e29280-1ed8-4109-834c-8a912549821c" x1="31.27" y1="12.23" x2="37.23606" y2="6.26394" gradientUnits="userSpaceOnUse"><stop offset="0" stop-color="#fff" stop-opacity="0"/><stop offset="0.44604" stop-color="#fff" stop-opacity="0.00799"/><stop offset="0.63551" stop-color="#fff" stop-opacity="0.03616"/><stop offset="0.77636" stop-color="#fff" stop-opacity="0.08493"/><stop offset="0.8924" stop-color="#fff" stop-opacity="0.15385"/><stop offset="0.99328" stop-color="#fff" stop-opacity="0.24291"/><stop offset="1" stop-color="#fff" stop-opacity="0.25"/></linearGradient><linearGradient id="05140bd1-ada8-41f9-a451-52da4a496f4f" x1="17.75381" y1="42.91826" x2="18.17734" y2="38.93002" gradientUnits="userSpaceOnUse"><stop offset="0" stop-color="#828282" stop-opacity="0"/><stop offset="0.99719" stop-opacity="0.2"/></linearGradient><linearGradient id="b41c5acd-8761-4a4d-9f31-eb4c2d29dd60" x1="14" y1="39.1875" x2="14" y2="14.75839" gradientUnits="userSpaceOnUse"><stop offset="0" stop-color="#fff" stop-opacity="0"/><stop offset="0.52587" stop-color="#fff" stop-opacity="0.00735"/><stop offset="0.71529" stop-color="#fff" stop-opacity="0.03396"/><stop offset="0.8503" stop-color="#fff" stop-opacity="0.0803"/><stop offset="0.95875" stop-color="#fff" stop-opacity="0.14595"/><stop offset="1" stop-color="#fff" stop-opacity="0.18"/></linearGradient></defs><title>FileTypeIcons_Master_All_NEW</title><polygon points="43 44 13 44 13 4 34 4 43 13 43 44" fill="#fff"/><path d="M34.00049,3H12V45H44V13ZM34,4.5,42.5,13H34ZM43,44H13V4H33V14H43Z" fill="#949494"/><path d="M39,17H24v1h1V39H24v1H40V17ZM26,39V18h6V39Zm13,0H33V18h6Z" fill="#c8c8c8"/><rect x="24" y="21" width="12" height="3" fill="#8bbf8a"/><rect x="24" y="27" width="12" height="3" fill="#8bbf8a"/><rect x="27" y="33" width="12" height="3" fill="#8bbf8a"/><polygon points="4 17 24 14 24 40 4 37 4 17" fill="#31752f"/><path d="M12.77385,28.86611V33H10V21h4.34542Q18.99972,21,19,24.82427A3.62976,3.62976,0,0,1,17.6646,27.749a5.38242,5.38242,0,0,1-3.56823,1.11716Zm0-5.7908V26.8159H13.8645q2.21565,0,2.21565-1.89121,0-1.84911-2.21565-1.84938Z" fill="#fff"/><path d="M44,13,34,3H12V45H44Z" fill="url(#fb98a3cd-08df-44f3-8aba-8d6e076fc8be)"/><rect x="33" y="14" width="10" height="3" fill="url(#18d0a186-c61b-48eb-8255-d2373441d684)"/><polygon points="12 3 12 4 33 4 33 14 43 14 43 28 44 28 44 13 34 3 12 3" fill="url(#92e29280-1ed8-4109-834c-8a912549821c)"/><polygon points="24 43 12 43 12 38.2 24 40 24 43" fill="url(#05140bd1-ada8-41f9-a451-52da4a496f4f)"/><polygon points="24 14 4 17 4 37 24 40 24 14" fill="url(#b41c5acd-8761-4a4d-9f31-eb4c2d29dd60)"/></svg>

<?xml version="1.0" encoding="utf-8"?>
<!-- Generator: Adobe Illustrator 21.1.0, SVG Export Plug-In . SVG Version: 6.00 Build 0)  -->
<svg version="1.1" xmlns="http://www.w3.org/2000/svg" xmlns:xlink="http://www.w3.org/1999/xlink" x="0px" y="0px"
	 viewBox="0 0 48 48" enable-background="new 0 0 48 48" xml:space="preserve">
<g id="TEMPLATE" display="none">
	<g display="inline">
		<path fill="#D0D0D0" d="M48,0v48H0V0H48 M49-1h-1H0h-1v1v48v1h1h48h1v-1V0V-1L49-1z"/>
	</g>
	<g display="inline" opacity="0.1">
		<path fill="#FF3A6D" d="M45,3v42H3V3H45 M48,0H0v48h48V0L48,0z"/>
	</g>
</g>
<g id="ICONS">
	<g>
		<polygon fill="#FFFFFF" points="43,44 13,44 13,4 34,4 43,13 		"/>
		<path fill="#949494" d="M34.0005,3H12v42h32V13L34.0005,3z M34,4.5l8.5,8.5H34V4.5z M43,44H13V4h20v10h10V44z"/>
	</g>
	<path fill="#C8C8C8" d="M39,17h-6h-1h-6h-1h-1v1h1v21h-1v1h1h1h6h1h6h1v-1V18v-1H39z M26,39V18h6v21H26z M39,39h-6V18h6V39z"/>
	<rect x="24" y="21" fill="#8BBF8A" width="12" height="3"/>
	<rect x="24" y="27" fill="#8BBF8A" width="12" height="3"/>
	<rect x="27" y="33" fill="#8BBF8A" width="12" height="3"/>
	<polygon fill="#31752F" points="4,17 24,14 24,40 4,37 	"/>
	<g>
		<path fill="#FFFFFF" d="M12.7739,28.8661V33H10V21h4.3454C17.4483,21,19,22.2748,19,24.8243c0,1.205-0.4452,2.1799-1.3354,2.9247
			c-0.8904,0.7448-2.0799,1.1172-3.5682,1.1172H12.7739z M12.7739,23.0753v3.7406h1.0906c1.4771,0,2.2156-0.6302,2.2156-1.8912
			c0-1.2327-0.7385-1.8494-2.2156-1.8494H12.7739z"/>
	</g>
	<linearGradient id="SVGID_1_" gradientUnits="userSpaceOnUse" x1="8.5867" y1="5.8641" x2="42.4893" y2="46.2676">
		<stop  offset="0" style="stop-color:#FFFFFF;stop-opacity:0"/>
		<stop  offset="0.2264" style="stop-color:#FCFCFC;stop-opacity:0.0226"/>
		<stop  offset="0.3626" style="stop-color:#F4F4F4;stop-opacity:0.0363"/>
		<stop  offset="0.475" style="stop-color:#E6E6E6;stop-opacity:0.0475"/>
		<stop  offset="0.5744" style="stop-color:#D1D1D1;stop-opacity:0.0574"/>
		<stop  offset="0.6652" style="stop-color:#B7B7B7;stop-opacity:0.0665"/>
		<stop  offset="0.7498" style="stop-color:#979797;stop-opacity:0.075"/>
		<stop  offset="0.8297" style="stop-color:#707070;stop-opacity:0.083"/>
		<stop  offset="0.9057" style="stop-color:#444444;stop-opacity:0.0906"/>
		<stop  offset="0.9761" style="stop-color:#121212;stop-opacity:0.0976"/>
		<stop  offset="1" style="stop-color:#000000;stop-opacity:0.1"/>
	</linearGradient>
	<path fill="url(#SVGID_1_)" d="M44,13L34,3H12v42h32V13z"/>
	<linearGradient id="SVGID_2_" gradientUnits="userSpaceOnUse" x1="38" y1="16.9063" x2="38" y2="14.0875">
		<stop  offset="0" style="stop-color:#828282;stop-opacity:0"/>
		<stop  offset="0.2812" style="stop-color:#7F7F7F;stop-opacity:0.0281"/>
		<stop  offset="0.4503" style="stop-color:#777777;stop-opacity:0.045"/>
		<stop  offset="0.5899" style="stop-color:#696969;stop-opacity:0.059"/>
		<stop  offset="0.7133" style="stop-color:#545454;stop-opacity:0.0713"/>
		<stop  offset="0.8259" style="stop-color:#3A3A3A;stop-opacity:0.0826"/>
		<stop  offset="0.9294" style="stop-color:#1A1A1A;stop-opacity:0.0929"/>
		<stop  offset="1" style="stop-color:#000000;stop-opacity:0.1"/>
	</linearGradient>
	<rect x="33" y="14" fill="url(#SVGID_2_)" width="10" height="3"/>
	<linearGradient id="SVGID_3_" gradientUnits="userSpaceOnUse" x1="31.27" y1="12.23" x2="37.2361" y2="6.2639">
		<stop  offset="0" style="stop-color:#FFFFFF;stop-opacity:0"/>
		<stop  offset="0.8537" style="stop-color:#FFFFFF;stop-opacity:0.2134"/>
		<stop  offset="1" style="stop-color:#FFFFFF;stop-opacity:0.25"/>
	</linearGradient>
	<polygon fill="url(#SVGID_3_)" points="12,3 12,4 33,4 33,14 43,14 43,28 44,28 44,13 34,3 	"/>
	<linearGradient id="SVGID_4_" gradientUnits="userSpaceOnUse" x1="17.7538" y1="42.9183" x2="18.1773" y2="38.93">
		<stop  offset="0" style="stop-color:#828282;stop-opacity:0"/>
		<stop  offset="0.1699" style="stop-color:#7E7E7E;stop-opacity:0.0341"/>
		<stop  offset="0.346" style="stop-color:#717171;stop-opacity:0.0694"/>
		<stop  offset="0.5248" style="stop-color:#5D5D5D;stop-opacity:0.1053"/>
		<stop  offset="0.7057" style="stop-color:#404040;stop-opacity:0.1415"/>
		<stop  offset="0.8863" style="stop-color:#1B1B1B;stop-opacity:0.1778"/>
		<stop  offset="0.9972" style="stop-color:#000000;stop-opacity:0.2"/>
	</linearGradient>
	<polygon fill="url(#SVGID_4_)" points="24,43 12,43 12,38.2 24,40 	"/>
	<linearGradient id="SVGID_5_" gradientUnits="userSpaceOnUse" x1="14" y1="39.1875" x2="14" y2="14.7584">
		<stop  offset="0" style="stop-color:#FFFFFF;stop-opacity:0"/>
		<stop  offset="0.8587" style="stop-color:#FFFFFF;stop-opacity:0.1546"/>
		<stop  offset="1" style="stop-color:#FFFFFF;stop-opacity:0.18"/>
	</linearGradient>
	<polygon fill="url(#SVGID_5_)" points="24,14 4,17 4,37 24,40 	"/>
</g>
</svg>
